!!!COM: Schiørring, Niels
!!!CDT: 1743-1798
!!!OPR@@DA: Choral-Bog
!!!ONM: 20
!!!OTL@@DA: Fra Himmelen høyt komme vi nu her
**kern	**fb	**kern	**kern	**kern	**kern	**kern	**kern	**kern
*part6	*part6	*part6	*part5	*part5	*part4	*part3	*part2	*part1
*staff8	*	*staff7	*staff6	*staff5	*staff4	*staff3	*staff2	*staff1
*clefF4	*	*clefC1	*clefF4	*clefC1	*clefF4	*clefC4	*clefC3	*clefC1
*mclefF4	*	*mclefG2	*mclefF4	*mclefG2	*mclefF4	*mclefGv2	*mclefG2	*mclefG2
*k[]	*	*k[]	*k[]	*k[]	*k[]	*k[]	*k[]	*k[]
*M4/4	*	*M4/4	*M4/4	*M4/4	*M4/4	*M4/4	*M4/4	*M4/4
*met(c)	*	*met(c)	*met(c)	*met(c)	*met(c)	*met(c)	*met(c)	*met(c)
*MM180	*	*MM180	*MM180	*MM180	*MM180	*MM180	*MM180	*MM180
*	*	*	*^	*^	*	*	*	*
=1	=1	=1	=1	=1	=1	=1	=1	=1	=1	=1
2C	.	2cc	2ryy	2C	2e	2g	2C	2e	2g	2cc
=2	=2	=2	=2	=2	=2	=2	=2	=2	=2	=2
2G	.	2b	1ryy	2G	2d	2g	2G	2d	2g	2b
2F#X	6	2a	.	2F#X	2d	2a	2F#X	2d	2a	2a
=3	=3	=3	=3	=3	=3	=3	=3	=3	=3	=3
2Fni	2	2b	2ryy	2Fni	2d	2g	2Fni	2d	2g	2b
[2E	6	2g	2c	2E	2g	2g	[2E	2c	2g	2g
=4	=4	=4	=4	=4	=4	=4	=4	=4	=4	=4
2E]	2	2a	2c	2E	2a	1f	2E]	2c	2f	2a
2D	6	2b	2d	2D	2b	.	2D	2d	2f	2b
=5	=5	=5	=5	=5	=5	=5	=5	=5	=5	=5
2C	.	2cc	2G	2C	2cc	2e	2C	2G	2e	2cc
*	*	*	*	*	*	*	*^	*	*	*
2FF	.	2cc	2A	2F	2cc	2f	2F	2FF	2A	2f	2cc
=6	=6	=6	=6	=6	=6	=6	=6	=6	=6	=6	=6
2AA	6	2cc	1ryy	2AA	2c	2f	2AA	1r	2c	2f	2cc
2C	.	2g	.	2C	2c	2e	2C	.	2c	2e	2g
=7	=7	=7	=7	=7	=7	=7	=7	=7	=7	=7	=7
2BB	6	2g	1G	2BB	2g	2d	2BB	1r	2G	2d	2g
2C	.	2e	.	2C	2e	2c	2C	.	2G	2c	2e
=8	=8	=8	=8	=8	=8	=8	=8	=8	=8	=8	=8
2C#X	5	2g	1A	2C#X	2g	2e	2C#X	1r	2A	2e	2g
2D	.	2f	.	2D	2f	2d	2D	.	2A	2d	2f
=9	=9	=9	=9	=9	=9	=9	=9	=9	=9	=9	=9
2AA	#	2e	2A	2AA	2e	2c#X	2AA	1r	2A	2c#X	2e
2A	n	2e	2A	2A	2e	2cn	2A	.	2A	2cn	2e
=10	=10	=10	=10	=10	=10	=10	=10	=10	=10	=10	=10
2F	.	2a	1c	2F	2a	2f	2F	1r	2c	2f	2a
2F#X	5	2a	.	2F#X	2a	2d	2F#X	.	2c	2d	2a
=11	=11	=11	=11	=11	=11	=11	=11	=11	=11	=11	=11
2G	.	2g	1B	2G	2g	2d	2G	1r	2B	2d	2g
2E	.	2b	.	2E	2b	2g	2E	.	2G	2e	2b
=12	=12	=12	=12	=12	=12	=12	=12	=12	=12	=12	=12
2C	6	2cc	2A	2C	2cc	2e	2C	1r	2A	2e	2cc
2D	#	2a	4F#X	2D	2a	2d	2D	.	2F#X	(4d	2a
.	.	.	4c	.	.	.	.	.	.	4c)	.
=13	=13	=13	=13	=13	=13	=13	=13	=13	=13	=13	=13
2GG	.	2g	1ryy	2GG	2B	2d	2GG	1r	2G	2B	2g
2AA	.	2cc	.	2AA	2e	[2a	2AA	.	2e	[2a	2cc
=14	=14	=14	=14	=14	=14	=14	=14	=14	=14	=14	=14
2E	4	2b	1ryy	2E	2e	4a]	2E	1r	2e	(4a]	2b
.	3	.	.	.	.	2g	.	.	.	2g)	.
2F	9	2a	.	2F	2c	.	2F	.	2c	.	2a
.	8	.	.	.	.	4f	.	.	.	4f	.
=15	=15	=15	=15	=15	=15	=15	=15	=15	=15	=15	=15
2BB	6	2g	1G	2BB	2g	2d	2BB	1r	2d	2g	2g
2C	.	2e	.	2C	2e	2c	2C	.	2G	2c	2e
=16	=16	=16	=16	=16	=16	=16	=16	=16	=16	=16	=16
2FF	.	2f	2ryy	2FF	2A	2.c	2F	2FF	2A	[2c	2f
2GG	4	2d	4G	2GG	2d	.	2G	2GG	(4G	(4c]	2d
.	3	.	4F	.	.	4B	.	.	4F)	4B)	.
*	*	*	*	*	*	*	*v	*v	*	*	*
=17	=17	=17	=17	=17	=17	=17	=17	=17	=17	=17
2C	.	2c	2E	2C	2c	2G	2C	2E	2c	2c
*	*	*	*v	*v	*	*	*	*	*	*
*	*	*	*	*v	*v	*	*	*	*
==	==	==	==	==	==	==	==	==
*-	*-	*-	*-	*-	*-	*-	*-	*-
!!!system-decoration: {(s1,s2,s3,s4)}{(s5,s6)}{(s7,s8)}
!!!RDF**kern: i = editorial accidental
!!!RDF**kern: > = above
!!!RDF**kern: < = below
!!!AGN: chorale
!!!EED: Derek Remeš
!!!EED2: Victor Phan
!!!END: 2023/11/28
!!!ENC: Wolfgang Drescher
!!!EEV: 2023/12/08
!!!title: @{ONM}. @{OTL}
!!!verovio: mnumInterval 1